source/img/icon-gift.svg

<svg width="63" height="76" viewBox="0 0 63 76" fill="none" xmlns="http://www.w3.org/2000/svg">
<g clip-path="url(#clip0)">
<path d="M60.165 22.23H60.062H35.758C49.362 15.415 50.446 11.115 49.946 8.70996C48.801 4.79396 44.342 1.77196 40.098 3.36896C34.614 5.43196 33.069 13.631 31.584 19.559C29.69 13.561 27.858 5.90996 23.573 2.03396C22.331 0.908959 20.524 -0.20304 17.897 0.0309596C13.932 0.38296 8.245 5.34796 10.553 10.88C12.77 16.193 20.092 19.55 24.907 22.23H2.834C1.275 22.23 0 23.506 0 25.065V36.25C0 37.809 1.275 39.084 2.835 39.084H3.105V75.083H60.063V39.084H60.167C61.728 39.084 63.002 37.809 63.002 36.25V25.065C63 23.506 61.725 22.23 60.165 22.23ZM41.766 5.87296C43.836 5.56696 46.673 7.15596 46.942 9.04396C47.328 11.767 43.593 14.236 41.934 15.387C39.45 17.11 37.081 17.998 34.756 19.393C35.628 15.748 37.268 6.53896 41.766 5.87296ZM19.232 15.721C17.042 14.254 12.788 11.343 12.89 8.04296C13 4.49096 18.545 1.55196 21.57 4.20396C25.367 7.53496 27.195 15.176 28.58 20.561C25.381 19.042 22.35 17.808 19.232 15.721ZM25.114 72.147H6.042V39.084H25.114V72.147V72.147ZM25.114 36.084H3V25.23H25.114V36.084ZM35.115 72.146H28.052V25.23H35.115V72.146ZM57.125 72.147H38.053V39.084H57.125V72.147ZM60 36.084H38.053V25.23H60V36.084Z" fill="#81B3D2"/>
</g>
<defs>
<clipPath id="clip0">
<rect width="63" height="75.084" fill="white"/>
</clipPath>
</defs>
</svg>

<svg version="1.1" id="Layer_1" xmlns="http://www.w3.org/2000/svg" xmlns:xlink="http://www.w3.org/1999/xlink" x="0px" y="0px" width="63px" height="75.084px" viewBox="0 0 63 75.084" enable-background="new 0 0 63 75.084" xml:space="preserve">
  <path d="M60.165,22.23h-0.103H35.758c13.604-6.815,14.688-11.115,14.188-13.52c-1.145-3.916-5.604-6.938-9.848-5.341 c-5.484,2.063-7.029,10.262-8.514,16.19C29.69,13.561,27.858,5.91,23.573,2.034c-1.242-1.125-3.049-2.237-5.676-2.003 c-3.965,0.352-9.652,5.317-7.344,10.849c2.217,5.313,9.539,8.67,14.354,11.35H2.834C1.275,22.23,0,23.506,0,25.065V36.25 c0,1.559,1.275,2.834,2.835,2.834h0.27v35.999h56.958V39.084h0.104c1.561,0,2.835-1.275,2.835-2.834V25.065 C63,23.506,61.725,22.23,60.165,22.23z M41.766,5.873c2.07-0.306,4.907,1.283,5.176,3.171c0.386,2.723-3.349,5.192-5.008,6.343 c-2.484,1.723-4.853,2.611-7.178,4.006C35.628,15.748,37.268,6.539,41.766,5.873z M19.232,15.721 c-2.19-1.467-6.444-4.378-6.342-7.678c0.11-3.552,5.655-6.491,8.68-3.839c3.797,3.331,5.625,10.972,7.01,16.357 C25.381,19.042,22.35,17.808,19.232,15.721z M25.114,72.147H6.042V39.084h19.072V72.147z M25.114,36.084H3V25.23h22.114V36.084z  M35.115,72.146h-7.063V25.23h7.063V72.146z M57.125,72.147H38.053V39.084h19.072V72.147z M60,36.084H38.053V25.23H60V36.084z"/>
</svg>
